src/assets/images/login/pass_show_icon.svg

<svg width="28" height="28" viewBox="0 0 28 28" fill="none" xmlns="http://www.w3.org/2000/svg">
<path d="M13.9997 21C8.98301 21 5.01634 18.6667 2.33301 14C5.01634 9.33333 8.98301 7 13.9997 7C19.0163 7 22.983 9.33333 25.6663 14C22.983 18.6667 19.0163 21 13.9997 21ZM14.233 9.33333C10.733 9.33333 7.23301 10.85 5.24967 14C7.23301 17.15 10.733 18.6667 14.233 18.6667C17.733 18.6667 20.7663 17.15 22.7497 14C20.7663 10.85 17.733 9.33333 14.233 9.33333ZM13.9997 17.5C12.0163 17.5 10.4997 15.9833 10.4997 14C10.4997 12.0167 12.0163 10.5 13.9997 10.5C15.983 10.5 17.4997 12.0167 17.4997 14C17.4997 15.9833 15.983 17.5 13.9997 17.5ZM13.9997 15.1667C14.6997 15.1667 15.1663 14.7 15.1663 14C15.1663 13.3 14.6997 12.8333 13.9997 12.8333C13.2997 12.8333 12.833 13.3 12.833 14C12.833 14.7 13.2997 15.1667 13.9997 15.1667Z" fill="#D0D0D0"/>
</svg>

<svg xmlns="http://www.w3.org/2000/svg" width="28" height="28" fill="none"><path fill="#D0D0D0" d="M14 21c-5.017 0-8.984-2.333-11.667-7C5.016 9.333 8.983 7 14 7c5.016 0 8.983 2.333 11.666 7-2.683 4.667-6.65 7-11.666 7Zm.233-11.667c-3.5 0-7 1.517-8.983 4.667 1.983 3.15 5.483 4.667 8.983 4.667 3.5 0 6.533-1.517 8.517-4.667-1.984-3.15-5.017-4.667-8.517-4.667ZM14 17.5c-1.984 0-3.5-1.517-3.5-3.5s1.516-3.5 3.5-3.5c1.983 0 3.5 1.517 3.5 3.5s-1.517 3.5-3.5 3.5Zm0-2.333c.7 0 1.166-.467 1.166-1.167S14.7 12.833 14 12.833 12.833 13.3 12.833 14 13.3 15.167 14 15.167Z"/></svg>
